src/asset/image/money.svg

<svg width="24" height="24" viewBox="0 0 24 24" fill="none" xmlns="http://www.w3.org/2000/svg">
<path fill-rule="evenodd" clip-rule="evenodd" d="M19 0C21.7614 0 24 2.23858 24 5C24 5.71131 23.8515 6.38793 23.5837 7.00053L24 7V21H0V7H10C10 4.23858 12.2386 2 15 2L15.0625 1.91804C15.9778 0.750326 17.4013 0 19 0ZM22 9C21.1637 9.6283 20.1252 10 19 10L19.0332 9.95577C18.4387 10.7656 17.6061 11.3898 16.6386 11.7253C16.737 11.8286 16.8214 11.9494 16.8915 12.086C17.0115 12.32 17.0715 12.611 17.0715 12.959C17.0715 13.391 16.977 13.7465 16.788 14.0255C16.6305 14.258 16.4282 14.4415 16.1811 14.5761L16.0275 14.651L17.3595 17H15.8745L14.7495 14.885H14.0205V17H12.6975L12.6972 11.4393C11.6853 10.9133 10.8759 10.0515 10.4167 9.00153L2 9V19H22V9ZM8.157 11.132V13.535H8.193L9.939 11.132H11.397L9.624 13.472L11.721 17H10.272L8.841 14.525L8.157 15.425V17H6.834V11.132H8.157ZM14.7045 12.185H14.0205V13.832H14.7045C15.0525 13.832 15.318 13.7585 15.501 13.6115C15.684 13.4645 15.7755 13.247 15.7755 12.959C15.7755 12.671 15.684 12.47 15.501 12.356C15.3485 12.261 15.1387 12.2056 14.8716 12.1898L14.7045 12.185ZM15 4C13.3431 4 12 5.34315 12 7C12 8.65685 13.3431 10 15 10C16.6569 10 18 8.65685 18 7C18 5.34315 16.6569 4 15 4ZM19 2C18.3573 2 17.7618 2.2021 17.2736 2.54622L17.4056 2.61568C18.952 3.46598 20 5.1106 20 7C20 7.28477 19.9762 7.56397 19.9305 7.83573L20.0541 7.80851L20.0118 7.8251C21.1708 7.40996 22 6.30181 22 5C22 3.34315 20.6569 2 19 2Z" fill="#3E3832"/>
</svg>

<svg width="24" height="24" viewBox="0 0 24 24" fill="none" xmlns="http://www.w3.org/2000/svg"><path fill-rule="evenodd" clip-rule="evenodd" d="M19 0a5 5 0 014.584 7H24v14H0V7h10a5 5 0 015-5l.063-.082A4.991 4.991 0 0119 0zm3 9c-.836.628-1.875 1-3 1l.033-.044a5.012 5.012 0 01-2.394 1.77c.098.103.182.223.253.36.12.234.18.525.18.873 0 .432-.095.787-.284 1.066-.157.233-.36.416-.607.551l-.154.075L17.36 17h-1.485l-1.125-2.115h-.729V17h-1.322v-5.56a5.02 5.02 0 01-2.281-2.438L2 9v10h20V9zM8.157 11.132v2.403h.036l1.746-2.403h1.458l-1.773 2.34L11.721 17h-1.449l-1.431-2.475-.684.9V17H6.834v-5.868h1.323zm6.547 1.053h-.684v1.647h.684c.348 0 .614-.074.797-.22.183-.148.274-.365.274-.653 0-.288-.091-.489-.274-.603-.152-.095-.362-.15-.63-.166l-.167-.005zM15 4a3 3 0 100 6 3 3 0 000-6zm4-2c-.643 0-1.238.202-1.726.546l.132.07a4.999 4.999 0 012.524 5.22l.124-.027-.042.016A3.001 3.001 0 0019 2z" fill="#3E3832"/></svg>
